icons-dark/actions/22/view-bank-account-savings.svg

<svg xmlns="http://www.w3.org/2000/svg" viewBox="0 0 22 22">
  <defs id="defs3051">
    <style type="text/css" id="current-color-scheme">
      .ColorScheme-Text {
        color:#f2f2f2
      }
      </style>
  </defs>
 <path 
    style="fill:currentColor;fill-opacity:1;stroke:none" 
    d="m3 3v1 15h1 6v-1h-6v-14h14v8h1v-8-1h-15-1m2 2v1 11h1 4v-1h-4v-10h10v3h-1v2h2v-2-4h-12m4 4c-1.108 0-2 .892-2 2 0 1.108.892 2 2 2 1.108 0 2-.892 2-2 0-1.108-.892-2-2-2m0 1c.554 0 1 .446 1 1 0 .554-.446 1-1 1-.554 0-1-.446-1-1 0-.554.446-1 1-1m2 3v6h8v-6h-8m1 1h6v1h-1v2h1v1h-6v-1h1v-2h-1v-1m3 1c-.554 0-1 .446-1 1 0 .554.446 1 1 1 .554 0 1-.446 1-1 0-.554-.446-1-1-1"
	class="ColorScheme-Text"
    />  
</svg>

<?xml version="1.0" encoding="UTF-8" standalone="no"?>
<!-- Created with Inkscape (http://www.inkscape.org/) -->

<svg
   xmlns:dc="http://purl.org/dc/elements/1.1/"
   xmlns:cc="http://creativecommons.org/ns#"
   xmlns:rdf="http://www.w3.org/1999/02/22-rdf-syntax-ns#"
   xmlns:svg="http://www.w3.org/2000/svg"
   xmlns="http://www.w3.org/2000/svg"
   xmlns:sodipodi="http://sodipodi.sourceforge.net/DTD/sodipodi-0.dtd"
   xmlns:inkscape="http://www.inkscape.org/namespaces/inkscape"
   width="22"
   height="22"
   id="svg3049"
   version="1.1"
   inkscape:version="0.48+devel r"
   sodipodi:docname="view-bank-account.svg"
   inkscape:export-filename="/home/uri/.kde/share/icons/NITRUX-KDE/16x16/actions/view-right-new.png"
   inkscape:export-xdpi="30"
   inkscape:export-ydpi="30">
  <defs
     id="defs3051" />
  <sodipodi:namedview
     id="base"
     pagecolor="#ffffff"
     bordercolor="#666666"
     borderopacity="1.0"
     inkscape:pageopacity="0.0"
     inkscape:pageshadow="2"
     inkscape:zoom="22.627417"
     inkscape:cx="7.1879869"
     inkscape:cy="10.419546"
     inkscape:document-units="px"
     inkscape:current-layer="layer1"
     showgrid="true"
     fit-margin-top="0"
     fit-margin-left="0"
     fit-margin-right="0"
     fit-margin-bottom="0"
     inkscape:window-width="1366"
     inkscape:window-height="669"
     inkscape:window-x="-4"
     inkscape:window-y="25"
     inkscape:window-maximized="1"
     inkscape:showpageshadow="false"
     borderlayer="true">
    <sodipodi:guide
       position="2.0000044,20.00003"
       orientation="18,0"
       id="guide4067" />
    <sodipodi:guide
       position="2.0000044,2.0000296"
       orientation="0,18"
       id="guide4069" />
    <sodipodi:guide
       position="20.000004,2.0000296"
       orientation="-18,0"
       id="guide4071" />
    <sodipodi:guide
       position="20.000004,20.00003"
       orientation="0,-18"
       id="guide4073" />
    <sodipodi:guide
       position="3.0000044,19.00003"
       orientation="16,0"
       id="guide4077" />
    <sodipodi:guide
       position="3.0000044,3.0000296"
       orientation="0,16"
       id="guide4079" />
    <sodipodi:guide
       position="19.000004,3.0000296"
       orientation="-16,0"
       id="guide4081" />
    <sodipodi:guide
       position="19.000004,19.00003"
       orientation="0,-16"
       id="guide4083" />
    <inkscape:grid
       type="xygrid"
       id="grid4085" />
  </sodipodi:namedview>
  <metadata
     id="metadata3054">
    <rdf:RDF>
      <cc:Work
         rdf:about="">
        <dc:format>image/svg+xml</dc:format>
        <dc:type
           rdf:resource="http://purl.org/dc/dcmitype/StillImage" />
        <dc:title />
      </cc:Work>
    </rdf:RDF>
  </metadata>
  <g
     inkscape:label="Capa 1"
     inkscape:groupmode="layer"
     id="layer1"
     transform="translate(-421.71429,-525.79074)">
    <path
       style="opacity:1;fill:#f2f2f2;fill-opacity:1;stroke:none;stroke-width:0.1;stroke-miterlimit:4;stroke-dasharray:none;stroke-opacity:1"
       d="M 3 3 L 3 4 L 3 19 L 4 19 L 10 19 L 10 18 L 4 18 L 4 4 L 18 4 L 18 12 L 19 12 L 19 4 L 19 3 L 4 3 L 3 3 z M 5 5 L 5 6 L 5 17 L 6 17 L 10 17 L 10 16 L 6 16 L 6 6 L 16 6 L 16 9 L 15 9 L 15 11 L 17 11 L 17 9 L 17 5 L 5 5 z M 9 9 C 7.892 9 7 9.892 7 11 C 7 12.108 7.892 13 9 13 C 10.108 13 11 12.108 11 11 C 11 9.892 10.108 9 9 9 z M 9 10 C 9.554 10 10 10.446 10 11 C 10 11.554 9.554 12 9 12 C 8.446 12 8 11.554 8 11 C 8 10.446 8.446 10 9 10 z M 11 13 L 11 19 L 19 19 L 19 13 L 11 13 z M 12 14 L 18 14 L 18 15 L 17 15 L 17 17 L 18 17 L 18 18 L 12 18 L 12 17 L 13 17 L 13 15 L 12 15 L 12 14 z M 15 15 C 14.446 15 14 15.446 14 16 C 14 16.554 14.446 17 15 17 C 15.554 17 16 16.554 16 16 C 16 15.446 15.554 15 15 15 z "
       transform="translate(421.71429,525.79074)"
       id="rect4197" />
  </g>
</svg>
